!!! OTL: Berkowitz299
!!! Chapter: 1
!!! Section: III
!!! Page: 72
!!! Mode: 
!!! Encoder: DJB
**kern
*staff1
*I"Piano
=1-
*clefC4
*k[b-e-a-]
*E-:
*M6/8
8r
8r
8r
8r
8r
8G/
=2
8G\L
8An\
8Bn\J
8c\L
8d\
8e-\J
=3
4.d\
4r
8G/
=4
8G\L
8Bn\
8c\J
8d\L
8e-\
8f\J
=5
4.e-\
4r
8g\
=6
8a-\L
8f\
8d\J
8.Bn\L
16d\K
8f\J
=7
8g\L
8e-\
8c\J
4A-\
8A-\
=8
!!linebreak:original
8G\L
16An\L
16Bn\J
8c\J
8f\L
8e-\
8d\J
=9
4.c\
8r
4r
==
*-
